X: 32294
T: Pigeon On The Gate, The
R: reel
M: 4/4
K: Edorian
BE~E2 EdcA|BEBc dBAF|D3D BDFE|DE(3FGA BAFA|
BE~E2 EdcA|B2~B2 dBAF|DEFA dDfe|dBAF E3A|
BE~E2 EdcA|BEBc dBAF|D3D (3DDD FE|DE (3FGA BAFA|
BE~E2 EdcA|BEBc dBAF|DEFA dDfe|dBAF E3A|
|:Beed efed|(3Bcd ef gfec|Bddc d3B|~A2FA DEFA|
B2~B2 efed|(3Bcd ef ~g3^g|afge f2ec|dBAF E4:|

